X:27
T:A Virgen, que de Deus (Cantiga 322)
C:Las Cantigas de Santa Maria, 1252
C:Anon., Alfonso X el sabio (1221-1284)
R:Cantigas
M:C|
L:1/4
K:F
V:1
F2FG | A2A2 | B2AG | A2A2 | A2AB | A2AG |
F2GF | FED2 | F2FG | A2A2 | B2AG | A2A2 |
AGFE | D2CD | F2GF | FED2 | d2de | d2cB |
ABAG | A2A2 | A2AB | c2BA/G/ | F2FG | A2A2 |
V:2
D2DD | F2F2 | G2FD | F2F2 | F2FG | F2FD |
D2DD | DB,A,2 | D2DD | F2F2 | G2FG | F2F2 |
DDDB, | A,2CD | D2DD | DB,A,2 | F2FA | A2FG |
FFFF | F2F2 | D2 FG | F2GD | D2DD | F2F2 |
V:3
A2AG | F2F2 | G2AB | A2F2 | F2FG | A2FG |
A2BA | AGF2 | A2AG | F2F2 | G2AB | A2F2 |
FGAB | A2GG | A2BA | AGF2 | A2AA | A2AG |
FGAB | A2F2 | F2FG | A2GA/B/ | A2AB | A2F2 |
V:4
D,2D,2 | D,2D,2 | D,2D,2 | D,2D,2 | D,2D,2 | D,2D,2 | 
D,2D,2 | D,2D,2 | D,2D,2 | D,2D,2 | D,2D,2 | D,2D,2 | 
D,2D,2 | D,2D,2 | D,2D,2 | D,2D,2 | D,2D,2 | D,2D,2 | 
D,2D,2 | D,2D,2 | D,2D,2 | D,2D,2 | D,2D,2 | D,2D,2 | 
V:1
d2de | d2cB | ABAG | A2A2 | A2AB | c2BA/G/ |
F2FE | D2D2 | F2FG | A2A2 | B2AG | A2A2 |
A2AB | A2AG | F2GF | FED2 | F2FG | A2A2 |
B2AG | A2A2 | AGFE | D2CD | F2GF | FED2 |]
V:2
F2AA | F2AG | FFFF | F2F2 | F2FG | F2GD |
D2DB, | A,2A,2 | D2DD | F2F2 | G2FD | F2F2 |
F2FG | F2FD | D2DD | DB,A,2 | D2DD | F2F2 |
G2FD | F2F2 | DDDB, | A,2A,A, | D2DD | DB,A,2 |]
V:3
A2AA | A2AG | FGAB | A2F2 | F2FG | A2GA/B/ |
A2AG | F2F2 | A2AB | A2F2 | G2AB | A2F2 |
F2FG | F2FG | A2BA | AGF2 | A2AB | A2F2 |
G2AB | A2F2 | FGAB | A2A2 | A2BA | AGF2 |]
V:4
D,2D,2 | D,2D,2 | D,2D,2 | D,2D,2 | D,2D,2 | D,2D,2 | 
D,2D,2 | D,2D,2 | D,2D,2 | D,2D,2 | D,2D,2 | D,2D,2 | 
D,2D,2 | D,2D,2 | D,2D,2 | D,2D,2 | D,2D,2 | D,2D,2 | 
D,2D,2 | D,2D,2 | D,2D,2 | D,2D,2 | D,2D,2 | D,2D,2 |]






